dist/org.eden_emu.eden.svg

<svg width="512" height="512" viewBox="0 0 512 512" fill="none" xmlns="http://www.w3.org/2000/svg">
<path d="M346.71 255.306C347.498 255.312 348.287 255.319 349.834 255.365C353.84 255.392 357.087 255.38 360.335 255.368C393.726 255.39 427.118 255.396 460.51 255.446C468.684 255.459 476.859 255.725 485.032 255.655C488.116 255.629 489.628 256.405 489.388 259.811C489.095 263.968 489.078 268.154 489.129 272.324C489.178 276.288 487.881 277.863 483.45 277.848C434.6 277.69 385.749 277.777 336.898 277.792C314.791 277.799 292.684 277.792 270.577 277.792C268.897 277.792 267.216 277.792 265.147 277.792C265.147 280.198 265.147 282.26 265.147 284.909C339.047 284.909 412.992 284.909 488.158 284.909C486.605 293.163 485.264 300.669 483.683 308.124C483.513 308.926 482.017 309.741 480.998 309.994C479.686 310.321 478.235 310.093 476.843 310.093C408.204 310.094 339.564 310.093 270.925 310.093C269.099 310.093 267.274 310.093 265.099 310.093C265.099 312.414 265.099 314.316 265.099 316.794C336.971 316.794 408.766 316.794 481.765 316.794C480.156 322.219 478.878 326.868 477.398 331.452C474.64 339.992 474.591 339.976 465.834 339.976C400.905 339.976 335.975 339.99 271.046 339.936C267.645 339.933 264.856 340.187 266.288 344.588C266.637 345.663 268.163 346.614 269.359 347.079C270.434 347.497 271.798 347.171 273.035 347.171C336.882 347.172 400.729 347.172 464.577 347.172C466.538 347.172 468.499 347.172 471.747 347.172C468.214 354.462 465.348 360.892 461.913 367.002C461.262 368.159 458.351 368.45 456.481 368.456C428.5 368.544 400.518 368.517 372.537 368.517C340.845 368.517 309.153 368.522 277.462 368.509C274.852 368.507 272.243 368.385 268.932 368.488C265.822 368.661 263.414 368.665 261.006 368.669C260.157 361.637 258.717 354.618 258.566 347.571C258.019 321.955 257.793 296.329 257.722 270.707C257.708 265.827 258.95 260.944 260.242 255.78C263.122 255.484 265.374 255.47 268.052 255.521C290.544 255.542 312.609 255.497 335.086 255.455C339.235 255.406 342.972 255.356 346.71 255.306Z" fill="#BF42F6"/>
<path d="M168.124 257.114C168.124 254.224 168.124 251.335 168.124 247.813C165.717 247.813 163.454 247.812 161.191 247.814C116.669 247.839 72.147 247.824 27.6252 247.96C23.7666 247.972 22.2673 246.93 22.881 242.96C23.5641 238.542 24.1347 234.075 24.274 229.614C24.3797 226.228 25.8766 225.609 28.8817 225.602C74.7825 225.492 120.683 225.258 166.584 225.15C170.449 225.141 173.426 224.806 172.616 219.319C123.812 219.319 75.0239 219.319 25.5469 219.319C26.9368 212.72 27.9 206.638 29.684 200.806C30.0972 199.456 33.3116 198.191 35.2394 198.188C82.6973 198.104 130.156 198.178 177.614 198.297C180.889 198.305 183.469 197.917 183.752 193.252C133.221 193.252 82.8017 193.252 31.1474 193.252C34.5761 183.941 37.4945 175.542 40.8871 167.339C41.3695 166.173 44.1519 165.397 45.8745 165.389C70.4559 165.265 95.0391 165.179 119.619 165.403C124.902 165.451 127.692 162.82 130.747 158.155C101.833 158.155 73.6922 158.155 44.2965 158.155C48.6465 150.32 52.2985 143.402 56.3736 136.743C57.0441 135.647 59.5709 135.27 61.2418 135.265C91.853 135.182 122.468 134.974 153.074 135.378C160.259 135.472 165.793 132.759 171.395 128.604C135.247 128.604 99.0997 128.604 61.3855 128.604C63.9769 124.799 65.74 122.058 67.6533 119.426C76.5339 107.21 76.5488 107.217 91.722 107.216C132.383 107.214 173.043 107.215 213.704 107.215C215.333 107.215 216.963 107.215 219.589 107.215C215.621 103.087 212.582 100.249 207.268 100.271C168.309 100.436 129.348 100.361 90.3883 100.361C88.6019 100.361 86.8155 100.361 85.0291 100.361C84.7819 99.9245 84.5347 99.4882 84.2876 99.0518C88.1195 95.1992 91.8517 91.2407 95.8023 87.5139C107.258 76.707 107.297 76.5178 123.048 76.797C146.257 77.2083 168.151 83.5976 189.282 92.6819C194.939 95.1141 199.842 96.3969 205.886 93.6265C210.612 91.4602 216.103 90.9624 221.92 90.105C217.509 98.2438 222.807 102.146 227.44 106.519C233.17 111.927 238.663 117.589 244.191 123.207C245.356 124.392 246.226 125.866 247.876 128.064C245.62 128.192 244.211 128.338 242.801 128.339C233.062 128.347 223.312 128.625 213.587 128.254C185.542 127.184 161.995 137.498 141.985 156.463C134.833 163.241 128.46 170.842 121.773 178.106C121.09 178.848 120.694 179.854 119.564 181.738C153.504 169.812 185.44 154.361 221.153 153.101C221.439 153.566 221.725 154.031 222.012 154.496C217.784 159.439 213.824 164.644 209.282 169.279C191.191 187.74 180.377 209.952 175.39 235.052C173.988 242.109 174.084 249.464 172.886 256.993C170.894 257.241 169.509 257.177 168.124 257.114ZM188.119 165.388C191.984 165.392 195.882 165.073 199.704 165.478C205.266 166.067 208.624 163.3 212.229 157.958C203.095 160.11 195.085 161.997 187.09 163.946C187.082 163.948 187.299 164.874 188.119 165.388Z" fill="#FF44C4"/>
<path d="M167.719 257.136C169.509 257.177 170.894 257.241 172.698 257.321C173.267 260.412 173.417 263.487 173.568 266.561C174.109 266.754 174.65 266.946 175.191 267.138C177.491 263.746 179.79 260.353 182.658 256.68C185.114 256.298 187.001 256.197 189.231 256.082C190.636 255.949 191.697 255.74 192.761 255.726C204.841 255.564 216.921 255.431 229.454 255.358C232.917 255.469 235.927 255.513 238.938 255.558C237.818 262.235 236.632 268.903 235.591 275.593C230.876 305.878 230.187 336.29 232.405 367.244C229.936 367.99 227.888 368.292 225.84 368.594C169.723 368.569 113.604 368.459 57.4874 368.655C52.1532 368.673 49.1893 367.096 47.3023 362.24C45.428 357.416 43.0071 352.804 40.395 347.171C46.8384 347.171 52.1904 347.171 57.5425 347.171C111.497 347.171 165.451 347.184 219.405 347.127C221.431 347.125 224.269 348.345 224.732 344.528C225.201 340.666 223.461 339.903 219.951 339.912C181.148 340.015 142.344 339.973 103.54 339.98C83.135 339.983 62.7288 339.915 42.3251 340.105C38.7804 340.138 36.9648 339.061 36.0009 335.686C34.3592 329.936 32.424 324.27 30.1224 317.027C95.4851 316.768 159.799 317 224.546 316.883C224.679 314.542 224.788 312.635 224.918 310.35C223.017 310.251 221.52 310.106 220.022 310.105C161.739 310.073 103.457 310.049 45.1739 310.045C40.6936 310.045 36.2103 310.324 31.7352 310.208C30.5966 310.179 28.6572 309.311 28.4879 308.527C26.8124 300.761 25.4322 292.932 23.8642 284.566C32.2966 284.566 39.6717 284.535 47.0462 284.586C49.0444 284.6 51.0409 284.986 53.0382 284.987C109.002 285.01 164.966 285.007 220.93 285.004C227.005 285.004 227.237 284.748 227.196 277.806C159.571 277.806 91.939 277.806 23.4312 277.806C23.1466 271.163 22.7111 265.067 22.8388 258.983C22.8553 258.197 25.779 256.839 27.3699 256.818C42.5176 256.621 57.6684 256.641 72.8183 256.627C90.4423 256.611 108.067 256.555 125.69 256.645C139.566 256.715 153.44 256.98 167.719 257.136Z" fill="#BF43F5"/>
<path d="M225.868 369.021C227.888 368.292 229.936 367.99 232.419 367.67C235.091 385.521 236.588 403.523 239.753 421.226C243.8 443.866 249.538 466.166 258.383 487.524C258.673 488.223 258.881 488.957 259.125 489.666C233.735 500.118 134.503 467.057 112.196 440.213C133.167 440.213 153.452 440.213 173.738 440.213C194.097 440.213 214.456 440.213 234.865 440.213C235.167 435.403 234.015 433.298 229.015 433.322C189.132 433.515 149.247 433.377 109.363 433.504C104.922 433.518 101.327 432.659 98.1553 429.334C91.2852 422.131 84.1651 415.168 77.1472 408.106C77.3772 407.667 77.6072 407.227 77.8372 406.787C128.242 406.787 178.647 406.787 229.629 406.787C229.157 404.011 228.808 401.959 228.389 399.498C226.318 399.498 224.491 399.498 222.663 399.498C179.842 399.498 137.021 399.509 94.1995 399.485C88.0189 399.482 81.8278 399.057 75.6616 399.312C71.9579 399.466 69.5223 398.246 67.5577 395.239C63.447 388.947 59.1906 382.75 54.3018 375.484C112.168 375.484 168.754 375.484 225.895 375.484C225.895 373.051 225.895 371.25 225.868 369.021Z" fill="#985DED"/>
<path d="M260.972 369.083C263.414 368.665 265.822 368.661 268.613 368.652C269.095 370.639 269.194 372.631 269.319 375.151C331.728 375.151 393.962 375.151 457.62 375.151C454.494 380.102 452.076 384.097 449.497 387.986C441.857 399.507 441.832 399.494 428.271 399.495C379.104 399.497 329.938 399.497 280.771 399.498C278.952 399.498 277.133 399.498 275.364 399.498C274.762 406.186 275.214 406.712 281.188 406.712C330.355 406.716 379.521 406.715 428.688 406.716C430.485 406.716 432.282 406.716 435.579 406.716C431.531 411.249 428.125 414.528 425.346 418.272C416.299 430.462 404.771 434.396 389.379 433.814C356.34 432.564 323.22 433.43 290.133 433.43C288.308 433.43 286.483 433.43 284.683 433.43C284.408 439.2 285.266 440.204 290.277 440.206C324.755 440.218 359.234 440.212 393.712 440.213C395.479 440.213 397.247 440.213 399.014 440.213C399.162 440.637 399.31 441.062 399.457 441.487C395.962 444.107 392.547 446.845 388.957 449.329C365.452 465.594 339.765 477.073 312.064 484.025C308.801 484.844 305.301 485.399 301.995 485.11C300.121 484.946 297.851 483.195 296.729 481.513C287.226 467.255 281.255 451.38 275.674 435.286C268.256 413.892 264.084 391.821 260.972 369.083Z" fill="#985DED"/>
<path d="M360.319 254.985C357.087 255.38 353.84 255.392 350.13 255.344C352.742 241.016 352.425 226.821 348.968 212.641C344.228 193.202 333.16 178.387 316.466 167.602C315.827 167.189 315.196 166.763 314.614 165.465C332.13 165.465 349.645 165.465 367.161 165.465C367.232 164.963 367.303 164.461 367.374 163.959C360.348 161.294 353.396 158.207 345.641 158.14C330.186 158.004 314.727 158.187 299.272 158.02C296.18 157.986 293.099 156.976 290.07 155.609C308.444 148.224 327.242 149.026 346.131 152.009C365.259 155.03 381.902 164.966 400.745 172.631C399.226 169.749 398.344 168.073 397.083 165.681C398.929 165.533 400.335 165.322 401.741 165.321C423.226 165.3 444.711 165.369 466.195 165.239C469.457 165.22 471.257 166.087 472.316 169.34C474.635 176.468 477.328 183.474 480.207 191.469C437.058 191.469 395.134 191.469 352.987 191.469C353.131 196.006 355.092 197.265 358.884 197.252C387.942 197.149 417.001 197.141 446.059 197.224C456.862 197.255 467.666 197.533 478.461 197.912C479.788 197.959 481.947 199.095 482.224 200.127C483.773 205.901 484.862 211.798 486.245 218.296C444.033 218.296 402.555 218.296 361.127 218.296C360.579 224.586 360.873 224.906 366.334 224.915C405.283 224.976 444.232 225.073 483.181 225.061C486.044 225.06 487.392 225.733 487.578 228.833C487.882 233.909 488.534 238.969 489.187 244.016C489.601 247.215 488.55 248.459 485.182 248.344C478.547 248.116 471.899 248.239 465.256 248.238C432.488 248.234 399.72 248.236 366.952 248.239C360.686 248.24 360.686 248.246 360.319 254.985Z" fill="#FF43C4"/>
<path d="M214.837 27.3467C256.669 20.3275 295.906 25.2276 317.837 32.8001C314.753 40.022 311.684 47.2192 308.606 54.4123C306.966 58.245 305.057 61.9862 303.737 65.9253C302.646 69.1813 300.745 69.9848 297.52 69.9673C275.428 69.8481 253.335 69.9048 230.066 69.9048C234.006 73.9507 236.939 77.2015 242.374 77.1502C259.063 76.9925 275.755 77.0945 292.446 77.0955C294.126 77.0956 295.806 77.0955 299.191 77.0955C295.53 83.1948 293.135 88.9351 289.216 93.3117C283.077 100.168 275.776 105.971 269.244 112.496C266.728 115.01 265.557 114.912 263.143 112.267C253.27 101.454 243.334 90.6738 232.947 80.3585C221.493 68.9833 206.964 64.271 191.205 62.4511C177.194 60.8331 163.893 63.4164 150.754 67.9581C147.611 69.0445 144.189 69.6922 140.868 69.8182C133.62 70.0932 126.355 69.9032 118.873 69.3103C147.374 47.7287 179.325 34.0009 214.837 27.3467ZM268.583 104.658C269.587 103.465 270.591 102.272 272.188 100.375C268.064 100.375 265.046 100.375 261.132 100.375C262.657 102.53 263.471 104.221 264.785 105.306C265.428 105.837 267.001 105.241 268.583 104.658Z" fill="#FF42C3"/>
<path d="M377.152 144.943C365.06 135.074 350.865 131.557 336.233 129.43C319.277 126.965 302.65 127.92 286.159 135.083C287.111 133.341 287.881 131.466 289.043 129.877C304.689 108.482 323.966 91.1177 347.4 78.6846C350.945 76.8038 355.765 76.9057 360.007 76.8364C373.452 76.6168 386.905 76.6706 400.352 76.8339C402.369 76.8584 404.866 77.4859 406.299 78.7721C413.309 85.0636 420.04 91.6664 426.844 98.1862C427.23 98.5562 427.386 99.1663 428.016 100.361C425.806 100.361 424.177 100.361 422.548 100.361C391.63 100.361 360.711 100.477 329.795 100.247C324.582 100.208 321.7 102.853 317.815 107.216C320.62 107.216 322.365 107.216 324.11 107.216C359.202 107.215 394.294 107.281 429.385 107.125C433.39 107.107 436.123 108.311 438.379 111.49C442.107 116.742 446.021 121.862 450.613 128.056C419.702 128.056 390.054 128.056 360.406 128.056C360.355 128.434 360.304 128.812 360.253 129.19C366.835 131.634 372.64 135.529 380.428 135.373C403.607 134.91 426.802 135.286 449.989 135.128C453.743 135.102 456.043 136.305 457.714 139.608C460.693 145.495 463.925 151.254 467.425 157.762C465.121 157.912 463.672 158.087 462.222 158.088C439.807 158.105 417.391 158.046 394.976 158.162C391.786 158.178 389.436 157.36 387.271 154.951C384.178 151.51 380.71 148.406 377.152 144.943Z" fill="#FF44C4"/>
<path d="M267.626 255.455C265.374 255.47 263.122 255.484 260.446 255.483C262.502 228.879 264.765 202.266 272.661 176.531C273.831 172.718 275.119 171.047 278.902 173.758C282.659 176.448 287.007 178.499 290.248 181.692C312.324 203.435 333.126 226.212 346.595 255C342.972 255.356 339.235 255.406 335.053 255.092C333.831 250.513 331.688 248.733 327.032 248.808C309.335 249.094 291.63 248.93 273.928 248.934C271.975 248.934 270.022 248.934 267.626 248.934C267.626 251.54 267.626 253.497 267.626 255.455ZM269.802 224.504C284.746 224.504 299.691 224.504 314.636 224.504C314.809 223.945 314.982 223.385 315.155 222.826C313.329 221.92 311.518 220.264 309.676 220.229C297.21 219.995 284.739 220.125 272.269 220.085C269.438 220.076 268.161 221.077 269.802 224.504ZM280.18 193.192C276.895 192.969 273.971 193.185 274.529 197.769C280.148 197.769 285.648 197.769 291.317 197.769C289.106 192.691 285.019 193.053 280.18 193.192Z" fill="#FF44C4"/>
<path d="M239.137 255.274C235.927 255.514 232.917 255.469 229.571 254.973C229.357 252.919 229.478 251.316 229.651 249.023C218.181 249.023 207.322 249.017 196.463 249.026C190.546 249.03 189.747 249.787 188.889 256.096C187.001 256.197 185.114 256.298 182.826 256.398C187.377 246.662 191.636 236.492 197.43 227.288C207.734 210.916 219.413 195.528 235.046 183.632C242.263 178.14 250.142 174.04 258.893 171.655C260.023 171.347 261.226 171.31 263.726 170.964C253.296 198.932 244.82 226.547 239.137 255.274ZM213.417 218.496C208.975 218.057 207.958 221.384 206.097 225.12C215.979 225.12 225.193 224.985 234.399 225.181C238.587 225.27 239.737 223.414 239.176 218.583C230.783 218.583 222.492 218.583 213.417 218.496ZM247.272 195.582C246.16 194.922 245.094 193.805 243.929 193.692C241.026 193.412 238.069 193.724 235.15 193.545C231.389 193.316 229.311 195.294 227.218 199.052C233.421 199.052 238.903 199.178 244.368 198.932C245.318 198.889 246.197 197.27 247.272 195.582Z" fill="#FF44C4"/>
<path d="M343.763 41.0642C361.685 48.39 378.236 57.4141 393.469 69.5912C362.798 67.5637 333.581 72.9926 304.89 85.3915C305.745 80.7182 307.285 77.8252 311.298 76.5849C317.158 74.7736 322.972 72.8152 328.77 70.0965C323.729 70.0965 318.689 70.0965 312.292 70.0965C318.159 58.5923 323.453 48.0558 329.002 37.6552C329.397 36.915 331.809 36.6888 333.031 37.0583C336.565 38.1271 339.97 39.6221 343.763 41.0642Z" fill="#FF44C4"/>
</svg>

<svg xmlns="http://www.w3.org/2000/svg" width="512" height="512" fill="none" viewBox="0 0 512 512"><path fill="#bf42f6" d="M346.71 255.306c.788.006 1.577.013 3.124.059 4.006.027 7.253.015 10.501.003 33.391.022 66.783.028 100.175.078 8.174.013 16.349.279 24.522.209 3.084-.026 4.596.75 4.356 4.156-.293 4.157-.31 8.343-.259 12.513.049 3.964-1.248 5.539-5.679 5.524-48.85-.158-97.701-.071-146.552-.056-22.107.007-44.214 0-66.321 0h-5.43v7.117h223.011c-1.553 8.254-2.894 15.76-4.475 23.215-.17.802-1.666 1.617-2.685 1.87-1.312.327-2.763.099-4.155.099H265.099v6.701h216.666c-1.609 5.425-2.887 10.074-4.367 14.658-2.758 8.54-2.807 8.524-11.564 8.524-64.929 0-129.859.014-194.788-.04-3.401-.003-6.19.251-4.758 4.652.349 1.075 1.875 2.026 3.071 2.491 1.075.418 2.439.092 3.676.092l191.542.001h7.17c-3.533 7.29-6.399 13.72-9.834 19.83-.651 1.157-3.562 1.448-5.432 1.454-27.981.088-55.963.061-83.944.061-31.692 0-63.384.005-95.075-.008-2.61-.002-5.219-.124-8.53-.021-3.11.173-5.518.177-7.926.181-.849-7.032-2.289-14.051-2.44-21.098-.547-25.616-.773-51.242-.844-76.864-.014-4.88 1.228-9.763 2.52-14.927 2.88-.296 5.132-.31 7.81-.259 22.492.021 44.557-.024 67.034-.066 4.149-.049 7.886-.099 11.624-.149"/><path fill="#ff44c4" d="M168.124 257.114v-9.301c-2.407 0-4.67-.001-6.933.001-44.522.025-89.044.01-133.566.146-3.858.012-5.358-1.03-4.744-5 .683-4.418 1.254-8.885 1.393-13.346.106-3.386 1.603-4.005 4.608-4.012 45.9-.11 91.801-.344 137.702-.452 3.865-.009 6.842-.344 6.032-5.831H25.546c1.39-6.599 2.354-12.681 4.138-18.513.413-1.35 3.628-2.615 5.555-2.618 47.458-.084 94.917-.01 142.375.109 3.275.008 5.855-.38 6.138-5.045H31.147c3.43-9.311 6.348-17.71 9.74-25.913.483-1.166 3.265-1.942 4.987-1.95 24.582-.124 49.165-.21 73.745.014 5.283.048 8.073-2.583 11.128-7.248h-86.45c4.35-7.835 8.002-14.753 12.077-21.412.67-1.096 3.197-1.473 4.868-1.478 30.611-.083 61.226-.291 91.832.113 7.185.094 12.719-2.619 18.321-6.774H61.385c2.592-3.805 4.355-6.546 6.268-9.178 8.88-12.216 8.896-12.209 24.069-12.21q60.991-.002 121.982-.001h5.885c-3.968-4.128-7.007-6.966-12.321-6.944-38.959.165-77.92.09-116.88.09H85.03l-.741-1.31c3.832-3.852 7.564-7.81 11.514-11.537 11.456-10.807 11.495-10.996 27.246-10.717 23.209.411 45.103 6.8 66.234 15.885 5.657 2.432 10.56 3.715 16.604.944 4.726-2.166 10.217-2.664 16.034-3.521-4.411 8.139.887 12.041 5.52 16.414 5.73 5.408 11.223 11.07 16.751 16.688 1.165 1.185 2.035 2.659 3.685 4.857-2.256.128-3.665.274-5.075.275-9.739.008-19.489.286-29.214-.085-28.045-1.07-51.592 9.244-71.602 28.209-7.152 6.778-13.525 14.379-20.212 21.643-.683.742-1.079 1.748-2.209 3.632 33.94-11.926 65.876-27.377 101.589-28.637l.859 1.395c-4.228 4.943-8.188 10.148-12.73 14.783-18.091 18.461-28.905 40.673-33.892 65.773-1.402 7.057-1.306 14.412-2.504 21.941-1.992.248-3.377.184-4.762.121m19.995-91.726c3.865.004 7.763-.315 11.585.09 5.562.589 8.92-2.178 12.525-7.52-9.134 2.152-17.144 4.039-25.139 5.988-.008.002.209.928 1.029 1.442"/><path fill="#bf43f5" d="M167.719 257.136c1.79.041 3.175.105 4.979.185.569 3.091.719 6.166.87 9.24l1.623.577c2.3-3.392 4.599-6.785 7.467-10.458 2.456-.382 4.343-.483 6.573-.598 1.405-.133 2.466-.342 3.53-.356 12.08-.162 24.16-.295 36.693-.368 3.463.111 6.473.155 9.484.2-1.12 6.677-2.306 13.345-3.347 20.035-4.715 30.285-5.404 60.697-3.186 91.651-2.469.746-4.517 1.048-6.565 1.35-56.117-.025-112.236-.135-168.353.061-5.334.018-8.298-1.559-10.185-6.415-1.874-4.824-4.295-9.436-6.907-15.069h17.147c53.955 0 107.909.013 161.863-.044 2.026-.002 4.864 1.218 5.327-2.599.469-3.862-1.271-4.625-4.781-4.616-38.803.103-77.607.061-116.411.068-20.405.003-40.811-.065-61.215.125-3.545.033-5.36-1.044-6.324-4.419-1.642-5.75-3.577-11.416-5.879-18.659 65.363-.259 129.677-.027 194.424-.144l.372-6.533c-1.901-.099-3.398-.244-4.896-.245-58.283-.032-116.565-.056-174.848-.06-4.48 0-8.964.279-13.439.163-1.138-.029-3.078-.897-3.247-1.681-1.676-7.766-3.056-15.595-4.624-23.961 8.433 0 15.808-.031 23.182.02 1.998.014 3.995.4 5.992.401 55.964.023 111.928.02 167.892.017 6.075 0 6.307-.256 6.266-7.198H23.431c-.284-6.643-.72-12.739-.592-18.823.016-.786 2.94-2.144 4.53-2.165 15.149-.197 30.3-.177 45.45-.191 17.623-.016 35.248-.072 52.871.018 13.876.07 27.75.335 42.029.491"/><path fill="#985ded" d="M225.868 369.021c2.02-.729 4.068-1.031 6.551-1.351 2.672 17.851 4.169 35.853 7.334 53.556 4.047 22.64 9.785 44.94 18.63 66.298.29.699.498 1.433.742 2.142-25.39 10.452-124.622-22.609-146.929-49.453h122.669c.302-4.81-.85-6.915-5.85-6.891-39.883.193-79.768.055-119.652.182-4.441.014-8.036-.845-11.208-4.17-6.87-7.203-13.99-14.166-21.008-21.228l.69-1.319H229.63l-1.24-7.289h-5.726c-42.821 0-85.642.011-128.464-.013-6.18-.003-12.371-.428-18.537-.173-3.704.154-6.14-1.066-8.104-4.073-4.111-6.292-8.367-12.489-13.256-19.755h171.593c0-2.433 0-4.234-.027-6.463m35.103.062c2.442-.418 4.85-.422 7.641-.431.482 1.987.581 3.979.706 6.499H457.62c-3.126 4.951-5.544 8.946-8.123 12.835-7.64 11.521-7.665 11.508-21.226 11.509l-147.5.003h-5.407c-.602 6.688-.15 7.214 5.824 7.214q73.75.004 147.5.004h6.891c-4.048 4.533-7.454 7.812-10.233 11.556-9.047 12.19-20.575 16.124-35.967 15.542-33.039-1.25-66.159-.384-99.246-.384h-5.45c-.275 5.77.583 6.774 5.594 6.776 34.478.012 68.957.006 103.435.007h5.302l.443 1.274c-3.495 2.62-6.91 5.358-10.5 7.842-23.505 16.265-49.192 27.744-76.893 34.696-3.263.819-6.763 1.374-10.069 1.085-1.874-.164-4.144-1.915-5.266-3.597-9.503-14.258-15.474-30.133-21.055-46.227-7.418-21.394-11.59-43.465-14.702-66.203"/><path fill="#ff43c4" d="M360.319 254.985c-3.232.395-6.479.407-10.189.359 2.612-14.328 2.295-28.523-1.162-42.703-4.74-19.439-15.808-34.254-32.502-45.039-.639-.413-1.27-.839-1.852-2.137h52.547l.213-1.506c-7.026-2.665-13.978-5.752-21.733-5.819-15.455-.136-30.914.047-46.369-.12-3.092-.034-6.173-1.044-9.202-2.411 18.374-7.385 37.172-6.583 56.061-3.6 19.128 3.021 35.771 12.957 54.614 20.622l-3.662-6.95c1.846-.148 3.252-.359 4.658-.36 21.485-.021 42.97.048 64.454-.082 3.262-.019 5.062.848 6.121 4.101 2.319 7.128 5.012 14.134 7.891 22.129h-127.22c.144 4.537 2.105 5.796 5.897 5.783q43.588-.154 87.175-.028c10.803.031 21.607.309 32.402.688 1.327.047 3.486 1.183 3.763 2.215 1.549 5.774 2.638 11.671 4.021 18.169H361.127c-.548 6.29-.254 6.61 5.207 6.619 38.949.061 77.898.158 116.847.146 2.863-.001 4.211.672 4.397 3.772.304 5.076.956 10.136 1.609 15.183.414 3.199-.637 4.443-4.005 4.328-6.635-.228-13.283-.105-19.926-.106q-49.152-.005-98.304.001c-6.266.001-6.266.007-6.633 6.746"/><path fill="#ff42c3" d="M214.837 27.347c41.832-7.02 81.069-2.12 103 5.453-3.084 7.222-6.153 14.42-9.231 21.612-1.64 3.833-3.549 7.574-4.869 11.513-1.091 3.256-2.992 4.06-6.217 4.042-22.092-.119-44.185-.062-67.454-.062 3.94 4.046 6.873 7.296 12.308 7.245 16.689-.157 33.381-.056 50.072-.055h6.745c-3.661 6.1-6.056 11.84-9.975 16.217-6.139 6.856-13.44 12.659-19.972 19.184-2.516 2.514-3.687 2.416-6.101-.229-9.873-10.813-19.809-21.593-30.196-31.908-11.454-11.376-25.983-16.088-41.742-17.908-14.011-1.618-27.312.965-40.451 5.507a34.7 34.7 0 0 1-9.886 1.86c-7.248.275-14.513.085-21.995-.508 28.501-21.58 60.452-35.31 95.964-41.963m53.746 77.311 3.605-4.283h-11.056c1.525 2.155 2.339 3.846 3.653 4.931.643.531 2.216-.065 3.798-.648"/><path fill="#ff44c4" d="M377.152 144.943c-12.092-9.869-26.287-13.386-40.919-15.513-16.956-2.465-33.583-1.51-50.074 5.653.952-1.742 1.722-3.617 2.884-5.206 15.646-21.395 34.923-38.76 58.357-51.192 3.545-1.881 8.365-1.78 12.607-1.849 13.445-.22 26.898-.165 40.345-.002 2.017.024 4.514.652 5.947 1.938 7.01 6.292 13.741 12.894 20.545 19.414.386.37.542.98 1.172 2.175h-5.468c-30.918 0-61.837.116-92.753-.114-5.213-.039-8.095 2.606-11.98 6.969h6.295c35.092-.001 70.184.065 105.275-.091 4.005-.018 6.738 1.186 8.994 4.365 3.728 5.252 7.642 10.372 12.234 16.566h-90.207l-.153 1.134c6.582 2.444 12.387 6.339 20.175 6.183 23.179-.463 46.374-.087 69.561-.245 3.754-.026 6.054 1.177 7.725 4.48 2.979 5.887 6.211 11.646 9.711 18.154-2.304.15-3.753.325-5.203.326-22.415.017-44.831-.042-67.246.074-3.19.016-5.54-.802-7.705-3.211-3.093-3.441-6.561-6.545-10.119-10.008M267.626 255.455a972 972 0 0 1-7.18.028c2.056-26.604 4.319-53.217 12.215-78.952 1.17-3.813 2.458-5.484 6.241-2.773 3.757 2.69 8.105 4.741 11.346 7.934 22.076 21.743 42.878 44.52 56.347 73.308-3.623.356-7.36.406-11.542.092-1.222-4.579-3.365-6.359-8.021-6.284-17.697.286-35.402.122-53.104.126h-6.302zm2.176-30.951h44.834l.519-1.678c-1.826-.906-3.637-2.562-5.479-2.597-12.466-.234-24.937-.104-37.407-.144-2.831-.009-4.108.992-2.467 4.419m10.378-31.312c-3.285-.223-6.209-.007-5.651 4.577h16.788c-2.211-5.078-6.298-4.716-11.137-4.577m-41.043 62.082c-3.21.24-6.22.195-9.566-.301-.214-2.054-.093-3.657.08-5.95-11.47 0-22.329-.006-33.188.003-5.917.004-6.716.761-7.574 7.07-1.888.101-3.775.202-6.063.302 4.551-9.736 8.81-19.906 14.604-29.11 10.304-16.372 21.983-31.76 37.616-43.656 7.217-5.492 15.096-9.592 23.847-11.977 1.13-.308 2.333-.345 4.833-.691-10.43 27.968-18.906 55.583-24.589 84.31m-25.72-36.778c-4.442-.439-5.459 2.888-7.32 6.624 9.882 0 19.096-.135 28.302.061 4.188.089 5.338-1.767 4.777-6.598-8.393 0-16.684 0-25.759-.087m33.855-22.914c-1.112-.66-2.178-1.777-3.343-1.89-2.903-.28-5.86.032-8.779-.147-3.761-.229-5.839 1.749-7.932 5.507 6.203 0 11.685.126 17.15-.12.95-.043 1.829-1.662 2.904-3.35m96.491-154.518c17.922 7.326 34.473 16.35 49.706 28.527-30.671-2.027-59.888 3.402-88.579 15.8.855-4.673 2.395-7.566 6.408-8.806 5.86-1.811 11.674-3.77 17.472-6.488h-16.478c5.867-11.505 11.161-22.041 16.71-32.442.395-.74 2.807-.966 4.029-.597 3.534 1.07 6.939 2.564 10.732 4.006"/></svg>
